flaticon/transportation/bus-1.svg

<svg xmlns="http://www.w3.org/2000/svg" width="32" height="32" viewBox="0 0 24 24">
    <path d="M12 2.886719C9.699219 2.886719 7.554688 3.925781 6.238281 5.667969 6.136719 5.761719 6.074219 5.894531 6.074219 6.042969L6.074219 13.796875C6.074219 14.078125 6.300781 14.308594 6.585938 14.308594L17.414062 14.308594C17.699219 14.308594 17.925781 14.078125 17.925781 13.796875L17.925781 6.042969C17.925781 5.90625 17.867188 5.777344 17.773438 5.6875 16.460938 3.933594 14.308594 2.886719 12 2.886719zM16.90625 13.285156L7.09375 13.285156 7.09375 6.230469C8.21875 4.773438 10.042969 3.910156 12 3.910156 13.957031 3.910156 15.78125 4.773438 16.90625 6.230469zM15.636719 16.9375L17.109375 16.9375 17.109375 17.960938 15.636719 17.960938zM6.890625 16.9375L8.363281 16.9375 8.363281 17.960938 6.890625 17.960938zM6.890625 16.9375"/>
    <path d="M 23.488281 6.273438 L 19.671875 6.273438 L 19.671875 4.007812 C 19.671875 3.863281 19.609375 3.734375 19.511719 3.644531 C 17.804688 1.359375 15.003906 0 12 0 C 9.003906 0 6.214844 1.351562 4.507812 3.621094 C 4.398438 3.714844 4.328125 3.851562 4.328125 4.007812 L 4.328125 6.273438 L 0.511719 6.273438 C 0.226562 6.273438 0 6.5 0 6.785156 L 0 10.492188 C 0 11.683594 0.8125 12.652344 1.8125 12.652344 C 2.8125 12.652344 3.625 11.683594 3.625 10.492188 L 3.625 7.292969 L 4.328125 7.292969 L 4.328125 19.652344 C 4.328125 19.9375 4.558594 20.164062 4.839844 20.164062 L 5.691406 20.164062 L 5.691406 21.925781 C 5.691406 23.070312 6.476562 24 7.4375 24 L 7.847656 24 C 8.8125 24 9.59375 23.070312 9.59375 21.925781 L 9.59375 20.164062 L 14.40625 20.164062 L 14.40625 21.925781 C 14.40625 23.070312 15.191406 24 16.152344 24 L 16.5625 24 C 17.523438 24 18.308594 23.070312 18.308594 21.925781 L 18.308594 20.164062 L 19.160156 20.164062 C 19.441406 20.164062 19.671875 19.9375 19.671875 19.652344 L 19.671875 7.292969 L 20.375 7.292969 L 20.375 10.492188 C 20.375 11.683594 21.1875 12.652344 22.1875 12.652344 C 23.1875 12.652344 24 11.683594 24 10.492188 L 24 6.785156 C 24 6.5 23.773438 6.273438 23.488281 6.273438 Z M 2.605469 10.492188 C 2.605469 11.109375 2.242188 11.628906 1.8125 11.628906 C 1.382812 11.628906 1.019531 11.109375 1.019531 10.492188 L 1.019531 7.292969 L 2.605469 7.292969 Z M 8.574219 21.925781 C 8.574219 22.496094 8.242188 22.980469 7.847656 22.980469 L 7.4375 22.980469 C 7.042969 22.980469 6.714844 22.496094 6.714844 21.925781 L 6.714844 20.164062 L 8.574219 20.164062 Z M 17.285156 21.925781 C 17.285156 22.496094 16.957031 22.980469 16.5625 22.980469 L 16.152344 22.980469 C 15.757812 22.980469 15.429688 22.496094 15.429688 21.925781 L 15.429688 20.164062 L 17.285156 20.164062 Z M 18.648438 19.144531 L 5.351562 19.144531 L 5.351562 4.199219 C 6.867188 2.207031 9.339844 1.019531 12 1.019531 C 14.660156 1.019531 17.132812 2.207031 18.648438 4.199219 Z M 22.980469 10.492188 C 22.980469 11.109375 22.617188 11.628906 22.1875 11.628906 C 21.757812 11.628906 21.398438 11.109375 21.398438 10.492188 L 21.398438 7.292969 L 22.980469 7.292969 Z M 22.980469 10.492188"/>
</svg>

<svg xmlns="http://www.w3.org/2000/svg" width="32" height="32" viewBox="0 0 24 24">
    <path d="M12 2.887c-2.3 0-4.445 1.039-5.762 2.781a.507.507 0 0 0-.164.375v7.754c0 .281.227.512.512.512h10.828c.285 0 .512-.23.512-.512V6.043a.496.496 0 0 0-.153-.356c-1.312-1.753-3.464-2.8-5.773-2.8zm4.906 10.398H7.094V6.23C8.219 4.773 10.043 3.91 12 3.91c1.957 0 3.781.863 4.906 2.32zm0 0M15.637 16.938h1.472v1.023h-1.472zm0 0M6.89 16.938h1.473v1.023H6.891zm0 0"/>
    <path d="M23.488 6.273h-3.816V4.008a.492.492 0 0 0-.16-.363C17.805 1.359 15.004 0 12 0 9.004 0 6.215 1.352 4.508 3.621a.506.506 0 0 0-.18.387v2.265H.512A.508.508 0 0 0 0 6.785v3.707c0 1.192.813 2.16 1.813 2.16s1.812-.968 1.812-2.16V7.293h.703v12.36c0 .285.23.511.512.511h.851v1.762c0 1.144.786 2.074 1.747 2.074h.41c.965 0 1.746-.93 1.746-2.074v-1.762h4.812v1.762c0 1.144.785 2.074 1.746 2.074h.41c.961 0 1.747-.93 1.747-2.074v-1.762h.851a.511.511 0 0 0 .512-.512V7.293h.703v3.2c0 1.19.813 2.16 1.813 2.16S24 11.682 24 10.492V6.784a.508.508 0 0 0-.512-.512zm-20.883 4.22c0 .616-.363 1.136-.792 1.136-.43 0-.793-.52-.793-1.137V7.293h1.585zm5.97 11.433c0 .57-.333 1.054-.727 1.054h-.41c-.395 0-.723-.484-.723-1.054v-1.762h1.86zm8.71 0c0 .57-.328 1.054-.723 1.054h-.41c-.394 0-.722-.484-.722-1.054v-1.762h1.855zm1.363-2.781H5.352V4.199C6.867 2.207 9.34 1.02 12 1.02c2.66 0 5.133 1.188 6.648 3.18zm4.332-8.653c0 .617-.363 1.137-.793 1.137-.43 0-.789-.52-.789-1.137V7.293h1.582zm0 0"/>
</svg>
